X:1
T:Title
%%score [ ( 1 2 ) ( 3 4 ) ]
L:1/8
Q:1/4=240
M:4/4
K:E
V:1 treble nm="Midi_74"
V:2 treble 
V:3 bass nm="Midi_74"
V:4 bass 
V:1
"^Psalm 20" G8 | A4 B4 | E8 || F8 | A4 G4 | F4 E4 | (G4 F4) || B8 | c4 d4 | G8 || A8 | c4 B4 | %12
 A4 F4 |"^C. H. H. Parry" E8 |] %14
V:2
 E8 | E4 D4 | E8 || C8 | F4 E4 | C4 E4 | (E4 D4) || F8 | F4 F4 | ^E8 || F8 | A4 G4 | F4 D4 | E8 |] %14
V:3
 B,8 | A,4 A,4 | G,8 || A,8 | B,4 B,4 | A,4 G,4 | B,8 || D8 | C4 ^B,4 | C8 || C8 | D4 E4 | %12
 C4 (B,2 A,2) | G,8 |] %14
V:4
 E,8 | C,4 B,,4 | C,8 || (F,6 E,2) | D,4 E,4 | A,,4 C,4 | B,,8 || B,8 | A,4 G,4 | C8 || F,8 | %11
 F,,4 G,,4 | A,,4 B,,4 | E,8 |] %14

